assets/img/braze_icons/briefcase-02.svg

<svg fill="none" height="24" viewBox="0 0 24 24" width="24" xmlns="http://www.w3.org/2000/svg"><path clip-rule="evenodd" d="m11.8625 2.00005h.2752c.7954-.00043 1.386-.00075 1.8977.13634 1.3803.36987 2.4585 1.44806 2.8284 2.82843.0824.30744.1151.64341.1281 1.03518h1.8466c.5272-.00002.982-.00003 1.3565.03057.3954.0323.7886.10362 1.167.29641.5645.28762 1.0234.74656 1.311 1.31105.1928.37838.2641.7716.2964 1.16694.0306.37457.0306.82933.0306 1.35643v7.6772c0 .5271 0 .9819-.0306 1.3564-.0323.3954-.1036.7886-.2964 1.167-.2876.5645-.7465 1.0234-1.311 1.311-.3784.1928-.7716.2641-1.167.2964-.3745.0306-.8292.0306-1.3563.0306h-13.67722c-.52709 0-.98197 0-1.3565-.0306-.39535-.0323-.78857-.1036-1.16695-.2964-.56448-.2876-1.02343-.7465-1.31105-1.311-.19279-.3784-.26411-.7716-.29641-1.167-.030599-.3745-.030585-.8293-.03057-1.3564v-7.6771c-.000015-.52716-.000029-.98197.03057-1.35653.0323-.39534.10362-.78856.29641-1.16694.28762-.56449.74657-1.02343 1.31105-1.31105.37838-.19279.7716-.26411 1.16695-.29641.37456-.0306.82933-.03059 1.35647-.03057h1.84687c.01293-.39177.0457-.72774.12807-1.03518.36987-1.38037 1.44806-2.45856 2.82843-2.82843.51168-.13709 1.10228-.13677 1.89768-.13634zm-2.85254 3.99995c.00919-.25751.02646-.39877.05829-.51754.18493-.69019.72403-1.22928 1.41425-1.41422.2222-.05955.5232-.06814 1.5176-.06814s1.2954.00859 1.5176.06814c.6902.18494 1.2293.72403 1.4142 1.41422.0319.11877.0491.26003.0583.51754zm-1.00996 3c.55229 0 1 .44772 1 1v8c0 .5523-.44771 1-1 1-.55228 0-1-.4477-1-1v-8c0-.55228.44772-1 1-1zm9 1c0-.55228-.4477-1-1-1s-1 .44772-1 1v8c0 .5523.4477 1 1 1s1-.4477 1-1z" fill="#801ed7" fill-rule="evenodd"/></svg>

<svg width="24" height="24" viewBox="0 0 24 24" fill="none" xmlns="http://www.w3.org/2000/svg">
<path fill-rule="evenodd" clip-rule="evenodd" d="M11.8625 2.00005H12.1377C12.9331 1.99962 13.5237 1.9993 14.0354 2.13639C15.4157 2.50626 16.4939 3.58445 16.8638 4.96482C16.9462 5.27226 16.9789 5.60823 16.9919 6H18.8385C19.3657 5.99998 19.8205 5.99997 20.195 6.03057C20.5904 6.06287 20.9836 6.13419 21.362 6.32698C21.9265 6.6146 22.3854 7.07354 22.673 7.63803C22.8658 8.01641 22.9371 8.40963 22.9694 8.80497C23 9.17954 23 9.6343 23 10.1614V17.8386C23 18.3657 23 18.8205 22.9694 19.195C22.9371 19.5904 22.8658 19.9836 22.673 20.362C22.3854 20.9265 21.9265 21.3854 21.362 21.673C20.9836 21.8658 20.5904 21.9371 20.195 21.9694C19.8205 22 19.3658 22 18.8387 22H5.16148C4.63439 22 4.17951 22 3.80498 21.9694C3.40963 21.9371 3.01641 21.8658 2.63803 21.673C2.07355 21.3854 1.6146 20.9265 1.32698 20.362C1.13419 19.9836 1.06287 19.5904 1.03057 19.195C0.999971 18.8205 0.999985 18.3657 1 17.8386V10.1615C0.999985 9.63434 0.999971 9.17953 1.03057 8.80497C1.06287 8.40963 1.13419 8.01641 1.32698 7.63803C1.6146 7.07354 2.07355 6.6146 2.63803 6.32698C3.01641 6.13419 3.40963 6.06287 3.80498 6.03057C4.17954 5.99997 4.63431 5.99998 5.16145 6H7.00832C7.02125 5.60823 7.05402 5.27226 7.13639 4.96482C7.50626 3.58445 8.58445 2.50626 9.96482 2.13639C10.4765 1.9993 11.0671 1.99962 11.8625 2.00005ZM9.00996 6C9.01915 5.74249 9.03642 5.60123 9.06825 5.48246C9.25318 4.79227 9.79228 4.25318 10.4825 4.06824C10.7047 4.00869 11.0057 4.0001 12.0001 4.0001C12.9945 4.0001 13.2955 4.00869 13.5177 4.06824C14.2079 4.25318 14.747 4.79227 14.9319 5.48246C14.9638 5.60123 14.981 5.74249 14.9902 6H9.00996ZM8 9C8.55229 9 9 9.44772 9 10V18C9 18.5523 8.55229 19 8 19C7.44772 19 7 18.5523 7 18V10C7 9.44772 7.44772 9 8 9ZM17 10C17 9.44772 16.5523 9 16 9C15.4477 9 15 9.44772 15 10V18C15 18.5523 15.4477 19 16 19C16.5523 19 17 18.5523 17 18V10Z" fill="#801ED7"/>
</svg>
